www/assets/icons/photo_camera_front.svg

<svg xmlns="http://www.w3.org/2000/svg" width="24" height="24" viewBox="0 0 24 24" fill='currentColor'><path d="m18 10.48 4-3.98v11l-4-3.98V18c0 1.1-.9 2-2 2H4c-1.1 0-2-.9-2-2V6c0-1.1.9-2 2-2h12c1.1 0 2 .9 2 2zM16 6H4v12h12zm-6 6c-1.1 0-2-.9-2-2s.9-2 2-2 2 .9 2 2-.9 2-2 2m0 1c1.34 0 4 .67 4 2v1H6v-1c0-1.33 2.66-2 4-2"/></svg>

<svg width="24" height="24" viewBox="0 0 24 24" xmlns="http://www.w3.org/2000/svg" fill='currentColor'><path d="M18 10.48L22 6.5V17.5L18 13.52V18C18 19.1 17.1 20 16 20H4C2.9 20 2 19.1 2 18V6C2 4.9 2.9 4 4 4H16C17.1 4 18 4.9 18 6V10.48ZM16 6H4V18H16V6ZM10 12C8.9 12 8 11.1 8 10C8 8.9 8.9 8 10 8C11.1 8 12 8.9 12 10C12 11.1 11.1 12 10 12ZM10 13C11.34 13 14 13.67 14 15V16H6V15C6 13.67 8.66 13 10 13Z"/></svg>
